X:105
T:CPDRVNG- Cupid's Revenge
S:Single sheet issue
Q:1/4=100
L:1/4
M:C
K:G
G|c3/2 d/ (c/d/)e|d3e|=fA(A/B/)c|B3c|\
dd/ e/de|d3c|BgB(A/G/)|G3||B|\
d3/2 e/dc|BdGd|e3/2 f/g(f/e/)|^dB2(e/f/)|\
gBfB|GEBe|d3/2 B/ (A/B/)c|B/ G3/2 z/c/A|\
d/Bz/g/ge/|d3/2 B/ (A/B/)c|B/G3/2z|]

